X:1
T:Title
%%score { ( 1 2 ) | ( 3 4 5 6 ) }
L:1/8
Q:1/4=85
M:4/4
K:F
V:1 treble nm="Grand Piano"
V:2 treble 
V:3 bass 
V:4 bass 
V:5 bass 
V:6 bass 
V:1
 A2 z2 A2 A2 | c2 c2 E2[K:bass] E2 | B2 z2 B2 B2 | d2 d2 A2 A2 | A2 z2 A2 A2 | c2 _e2 d2 d2 | %6
w: Melvin~J.~Hill * *||||||
 d2 z2 f2 B2 |[M:3/4] A2 G2 z2 |[M:1/4] (3CCC | %9
w: |||
[M:4/4] (3[A,CF]FF (3FFF (3[CFA]AA (3[FAc][FAc][FAc] | (3[DGc]cc (3[B,E]EE (3EEE (3CCC | %11
w: ||
 (3[CB]BB (3[EB]BB (3[GB]BB (3[EB]BB | (3[CFA]AA (3[CFA]A-[FA] (3[CFA]AA (3[A,C]CC | %13
w: ||
 (3[CFA]AA (3[FA]AA (3[FAc]cc (3[Ac_e]ee | (3[FBd]dd (3[FBd]dd (3[FBd]dd (3[FBdf]ff | %15
w: ||
 (3[Acf]ff (3[GBd]dB [GA]2 [B,EG]2 | F6 z2 |] %17
w: ||
V:2
 (3z FC (3A-[FA]A (3z FC (3z FC | (3z AF (3z AF (3z[K:bass] B,G, (3z B,G, | %2
 (3z EC (3B-[EB]B (3z EC (3z EC | (3z AF (3z AF (3z FC (3z FC | (3z FC (3A-[FA]A (3z FC (3z FC | %5
 (3z AF (3z AF (3z BF (3z BF | (3z BF (3e-[ce]e (3z cA (3z GD |[M:3/4] (3z FC (3z EB, [F,A,CF]2 | %8
[M:1/4] x2 |[M:4/4] x8 | x8 | x8 | x8 | x8 | x8 | x8 | x8 |] %17
V:3
 F,2 (3:2:2z2 C F,2 C,2 | A,2 F,2 G,2 C,2 | [E,,E,]2 (3:2:2z2 C [G,,G,]2 [C,,C,]2 | F,2 z2 F,2 z2 | %4
 z2 (3:2:2z2 C F,2 C,2 | z4 B,2 z2 | z2 G,2[K:treble][K:bass] z4 |[M:3/4] [C,C]2 [C,,C,]2 F,,2 | %8
[M:1/4] (3A,A,A, |[M:4/4] (3z [A,C][A,C] z2 (3z[K:treble] [CF][CF][K:bass] z2 | %10
 (3z[K:treble] [DG][DG][K:bass] (3G,[G,B,][G,B,] z2 (3[G,B,][G,B,][G,B,] | %11
 (3z CC (3z EE (3z[K:treble] GG[K:bass] (3z EE | %12
 (3z[K:treble] [CF][CF][K:bass] (3z [CF]C (3z[K:treble] [CF][CF][K:bass] (3z A,A, | %13
 (3z[K:treble] [CF][CF][K:bass] z2[K:treble][K:bass] (3z[K:treble] [FA][FA][K:bass] (3z[K:treble] [Ac][Ac] | %14
 (3z[K:treble] [FB][FB][K:bass] (3z[K:treble] [FB][FB][K:bass] (3z[K:treble] [FB][FB][K:bass] (3z[K:treble] [FBd][FBd] | %15
 (3z[K:treble] [Ac][Ac][K:bass] (3z[K:treble] [GB][DG][K:bass] [C,C]2 [C,,C,]2 | [F,,F,]6 z2 |] %17
V:4
 z2 C,2 z4 | F,,4 G,,4 | z2 C,2 z4 | F,,2- [F,,C,]2 F,,2- [F,,C,]2 | F,2 C,2 z4 | %5
 [A,,A,]2 [F,,F,]2 B,,2- [B,,F,]2 | [B,,B,]2 (3:2:2z2[K:treble] B[K:bass] [A,,A,]2 [B,,B,]2 | %7
[M:3/4] x6 |[M:1/4] x2 |[M:4/4] F,2 (3[A,C][A,C][A,C] F,2[K:treble][K:bass] C,2 | %10
 G,2[K:treble][K:bass] C,2 (3[G,B,][G,B,][G,B,] C,2 | E,2 C,2 E,2[K:treble][K:bass] C,2 | %12
 F,2[K:treble][K:bass] A,2 D,2[K:treble][K:bass] C,2 | %13
 F,2[K:treble][K:bass] (3C[K:treble][CF][CF][K:bass] A,2[K:treble][K:bass] F,2[K:treble] | %14
 B,2[K:treble][K:bass] F,2[K:treble][K:bass] D,2[K:treble][K:bass] D,2[K:treble] | %15
 F,2[K:treble][K:bass] G,2[K:treble][K:bass] z4 | x8 |] %17
V:5
 F,,4 F,,4 | x8 | z2 C,,2 z4 | x8 | F,,4 F,,4 | x8 | z2 G,,2[K:treble][K:bass] z4 |[M:3/4] x6 | %8
[M:1/4] x2 |[M:4/4] z2 C,2 z4[K:treble][K:bass] | G,,2[K:treble][K:bass] G,,4 z2 | %11
 E,,2 C,,2 E,,2[K:treble][K:bass] C,,2 | F,,2[K:treble][K:bass] A,,2 D,,2[K:treble][K:bass] C,,2 | %13
 z2[K:treble][K:bass] C,2[K:treble][K:bass] A,,2[K:treble][K:bass] z2[K:treble] | %14
 B,,2[K:treble][K:bass] F,,2[K:treble][K:bass] E,,2[K:treble][K:bass] B,,2[K:treble] | %15
 F,,2[K:treble][K:bass] G,,2[K:treble][K:bass] z4 | x8 |] %17
V:6
 x8 | x8 | x8 | x8 | x8 | x8 | x10/3[K:treble] x2/3[K:bass] x4 |[M:3/4] x6 |[M:1/4] x2 | %9
[M:4/4] F,,4 F,,4[K:treble][K:bass] | x2/3[K:treble] x4/3[K:bass] x6 | %11
 x14/3[K:treble] x4/3[K:bass] x2 | x2/3[K:treble] x4/3[K:bass] x8/3[K:treble] x4/3[K:bass] x2 | %13
 F,,4[K:treble][K:bass][K:treble][K:bass] z2[K:treble][K:bass] F,,2[K:treble] | %14
 x2/3[K:treble] x4/3[K:bass] x2/3[K:treble] x4/3[K:bass] x2/3[K:treble] x4/3[K:bass] x2/3[K:treble] x4/3 | %15
 x2/3[K:treble] x4/3[K:bass] x2/3[K:treble] x4/3[K:bass] x4 | x8 |] %17

